chart-waterfall.svg

<svg fill="currentColor" viewBox="0 0 24 24"><path d="M2 2h2v18h18v2H2zm15 0h3v16h-3zM6 11h3v7H6zm7-8h3v4h-3zm-3 5h3v4h-3z"/></svg>

<svg  viewBox="0 0 24 24" fill="currentColor"><path  d="M2 2H4V20H22V22H2V2M17 2H20V18H17V2M6 11H9V18H6V11M13 3H16V7H13V3M10 8H13V12H10V8Z"/></svg>
